X:1
T:O Christ, Our Hope, Our Heart's Desire
T:Text: Latin, c. 8th cent.; tr. John Chandler, 1837 Tune: H. W. Greatorex's Collection, 1851
T:CM MANOAH www.hymnary.org/text/o_christ_our_hope_our_hearts_desire
T:O Christ, Our Hope, Our Heart's Desire
T:This hymn is in the public domain. You may freely use this score for personal and congregational worship. If you reproduce the score, please credit Hymnary.org as the source. 
T:This hymn is in the public domain. You may freely use this score for personal and congregational worship. If you reproduce the score, please credit Hymnary.org as the source. 
Z:This hymn is in the public domain. You may freely use this score for personal and congregational worship. If you reproduce the score, please credit Hymnary.org as the source.
%%score ( 1 2 ) ( 3 4 )
L:1/8
M:3/4
K:F
V:1 treble nm="SOPRANO ALTO" snm="S. A."
V:2 treble 
V:3 bass nm="TENOR BASS" snm="T. B."
V:4 bass 
V:1
"^1""^2""^3""^4" FG | A4 G2 | F4 E2 | E4 D2 | D4 GA | B4 A2 | G4 F2 | (F6 | E4) |1 C2 | A4 G2 | %11
w: O *|Christ, our|hope, our|heart's de-|sire, re- *|demp- tion's|on- ly|spring,||Cre-|a- tor|
w: How _|vast the|mer- cy|and the|love which _|laid our|sins on|thee,||and|led thee|
w: But _|now the|bands of|death are|burst, the *|ran- som|has been|paid;||and|thou art|
w: O *|Christ, be|thou our|last- ing|joy, our *|ev- er|great re-|ward;||our|on- ly|
 B4 A2 | d4 A2 | (c2 B2) G2 | F4 C2 | A4 G2 | F6- | F4 x2 |] %18
w: of the|world art|thou, _ its|Sav- ior|and its|King.||
w: to a|cru- el|death _ to|set thy|peo- ple|free.||
w: on thy|Fa- ther's|throne, _ in|glo- rious|robes ar-|rayed.||
w: glo- ry|may it|be * to|glo- ry|in the|Lord!||
V:2
 C2 | F4 E2 | F4 C2 | B,4 B,2 | B,4 D2 | D4 D2 | D4 D2 | (C6 | C4) |1 B,2 | (A,2 C2) B,2 | D4 C2 | %12
 D4 D2 | D4 D2 | C4 C2 | F4 E2 | C6- | C4 x2 |] %18
V:3
 A,B, | C4 B,2 | A,4 F,2 | F,4 F,2 | F,4 G,^F, | G,4 ^F,2 | G,4 G,2 | (A,6 | G,4) |1 E,2 | %10
 F,4 F,2 | F,4 F,2 | F,4 ^F,2 | G,4 G,2 | A,4 A,2 | C4 B,2 | A,6- | A,4 x2 |] %18
V:4
 F,2 | F,4 F,2 | F,4 A,,2 | B,,4 B,,2 | B,,4 B,,A,, | G,,4 A,,2 | B,,4 =B,,2 | (C,6 | C,4) |1 C,2 | %10
 F,,4 F,,2 | F,4 F,2 | B,,4 D,2 | G,,4 B,,2 | C,4 C,2 | C,4 C,2 | F,6- | F,4 x2 |] %18

